images/shipping.svg

<svg width="50" height="33" viewBox="0 0 50 33" fill="none" xmlns="http://www.w3.org/2000/svg">
<path d="M48.8514 22.9538H48.5388V15.1492C48.5388 13.9426 47.5077 12.9611 46.2403 12.9611L43.9511 12.9607C43.9439 12.9601 43.9373 12.9563 43.934 12.9501L40.4886 6.3198C39.9681 5.3183 38.9157 4.6962 37.742 4.6962H32.3492V1.41769C32.3492 0.636 31.6811 0 30.86 0H2.95061C2.12941 0 1.46134 0.636 1.46134 1.41769V6.0743C1.46134 6.4594 1.78927 6.7716 2.19377 6.7716C2.59826 6.7716 2.92619 6.4594 2.92619 6.0743V1.41769C2.92619 1.40496 2.93713 1.39454 2.95061 1.39454H30.8601C30.8735 1.39454 30.8844 1.40496 30.8844 1.41769V22.9538H14.2193C13.1072 21.7338 11.4684 20.9599 9.64246 20.9599C7.81647 20.9599 6.17768 21.7338 5.06557 22.9538H2.92619V9.3097C2.92619 8.9246 2.59826 8.6124 2.19377 8.6124C1.78927 8.6124 1.46134 8.9246 1.46134 9.3097V22.9538H1.14874C0.515336 22.9538 0 23.4445 0 24.0475V27.0629C0 27.6659 0.515336 28.1566 1.14884 28.1566H3.76927C4.43802 30.6505 6.81744 32.5 9.64236 32.5C12.4673 32.5 14.8468 30.6505 15.5155 28.1566H27.2171C27.6216 28.1566 27.9495 27.8444 27.9495 27.4593C27.9495 27.0742 27.6216 26.762 27.2171 26.762H15.7024C15.7025 26.7513 15.7032 26.7407 15.7032 26.7299C15.7032 25.8809 15.508 25.075 15.1607 24.3483H34.8393C34.492 25.075 34.2968 25.8809 34.2968 26.7299C34.2968 26.7407 34.2975 26.7512 34.2976 26.762H30.5473C30.1428 26.762 29.8149 27.0742 29.8149 27.4593C29.8149 27.8444 30.1428 28.1566 30.5473 28.1566H34.4845C35.1533 30.6505 37.5327 32.5 40.3576 32.5C43.1826 32.5 45.5621 30.6505 46.2307 28.1566H48.8512C49.4846 28.1566 50 27.666 50 27.0629V24.0475C50.0002 23.4445 49.4849 22.9538 48.8514 22.9538ZM1.46486 26.762V24.3484H4.12406C3.77669 25.0751 3.58147 25.881 3.58147 26.73C3.58147 26.7408 3.58225 26.7513 3.58235 26.7621L1.46486 26.762ZM9.64236 31.1054C7.10806 31.1054 5.04633 29.1425 5.04633 26.7299C5.04633 24.3174 7.10816 22.3545 9.64236 22.3545C12.1766 22.3545 14.2384 24.3174 14.2384 26.7299C14.2384 29.1425 12.1767 31.1054 9.64236 31.1054ZM47.074 18.6218H45.6382C45.1787 18.6218 44.8047 18.2658 44.8047 17.8284C44.8047 17.391 45.1787 17.035 45.6382 17.035H47.074V18.6218ZM42.3049 12.9602H35.2219V8.6139H40.0464L42.3049 12.9602ZM32.3493 22.9538V6.0906H37.7421C38.3547 6.0906 38.904 6.4154 39.1757 6.9381L39.3218 7.2193H35.0383C34.3318 7.2193 33.757 7.7664 33.757 8.439V13.135C33.757 13.8076 34.3317 14.3548 35.0383 14.3548L46.2404 14.3557C46.7001 14.3557 47.074 14.7117 47.074 15.1493V15.6404H45.6382C44.371 15.6404 43.3399 16.622 43.3399 17.8284C43.3399 19.0348 44.371 20.0163 45.6382 20.0163H47.074V22.9538H44.9347C43.8226 21.7338 42.1838 20.9599 40.3578 20.9599C38.5318 20.9599 36.8931 21.7338 35.7809 22.9538H32.3493ZM40.3578 31.1054C37.8235 31.1054 35.7618 29.1425 35.7618 26.7299C35.7618 24.3174 37.8236 22.3545 40.3578 22.3545C42.892 22.3545 44.9539 24.3174 44.9539 26.7299C44.9539 29.1425 42.892 31.1054 40.3578 31.1054ZM48.5353 26.762H46.4178C46.4179 26.7513 46.4187 26.7407 46.4187 26.7299C46.4187 25.8809 46.2235 25.075 45.8761 24.3483H48.5353V26.762Z" fill="#F2AB00"/>
<path d="M37.3605 17.0987C37.3605 16.7136 37.0326 16.4014 36.6281 16.4014H34.489C34.0845 16.4014 33.7566 16.7136 33.7566 17.0987C33.7566 17.4837 34.0845 17.7959 34.489 17.7959H36.6281C37.0326 17.7959 37.3605 17.4837 37.3605 17.0987Z" fill="#F2AB00"/>
<path d="M9.64237 24.0879C8.11209 24.0879 6.86707 25.2732 6.86707 26.73C6.86707 28.1869 8.11209 29.3721 9.64237 29.3721C11.1726 29.3721 12.4177 28.1869 12.4177 26.73C12.4177 25.2732 11.1727 24.0879 9.64237 24.0879ZM9.64237 27.9776C8.91981 27.9776 8.33191 27.4179 8.33191 26.73C8.33191 26.0422 8.91981 25.4825 9.64237 25.4825C10.3649 25.4825 10.9528 26.0422 10.9528 26.73C10.9528 27.4179 10.365 27.9776 9.64237 27.9776Z" fill="#F2AB00"/>
<path d="M40.3578 24.0879C38.8275 24.0879 37.5825 25.2732 37.5825 26.73C37.5825 28.1869 38.8275 29.3721 40.3578 29.3721C41.8881 29.3721 43.1331 28.1869 43.1331 26.73C43.1331 25.2732 41.8881 24.0879 40.3578 24.0879ZM40.3578 27.9776C39.6353 27.9776 39.0474 27.4179 39.0474 26.73C39.0474 26.0422 39.6353 25.4825 40.3578 25.4825C41.0804 25.4825 41.6683 26.0422 41.6683 26.73C41.6683 27.4179 41.0804 27.9776 40.3578 27.9776Z" fill="#F2AB00"/>
</svg>

<svg width="50" height="33" fill="none" xmlns="http://www.w3.org/2000/svg"><path d="M48.851 22.954h-.312v-7.805c0-1.206-1.031-2.188-2.299-2.188h-2.289a.021.021 0 0 1-.017-.01L40.489 6.32c-.52-1.002-1.573-1.624-2.747-1.624h-5.393V1.418C32.35.636 31.681 0 30.86 0H2.95c-.82 0-1.489.636-1.489 1.418v4.656c0 .385.328.698.733.698.404 0 .732-.313.732-.698V1.418c0-.013.011-.023.025-.023h27.91c.012 0 .023.01.023.023v21.536H14.22a6.179 6.179 0 0 0-4.577-1.994 6.179 6.179 0 0 0-4.576 1.994h-2.14V9.31c0-.385-.328-.698-.732-.698-.405 0-.733.313-.733.698v13.644H1.15c-.634 0-1.149.49-1.149 1.093v3.016c0 .603.515 1.094 1.149 1.094h2.62C4.438 30.65 6.817 32.5 9.642 32.5s5.205-1.85 5.873-4.343h11.702c.405 0 .733-.313.733-.698 0-.385-.328-.697-.733-.697H15.702l.001-.032c0-.85-.195-1.655-.542-2.382h19.678a5.505 5.505 0 0 0-.542 2.382v.032h-3.75c-.404 0-.732.312-.732.697 0 .385.328.698.732.698h3.937c.67 2.494 3.049 4.343 5.874 4.343 2.825 0 5.204-1.85 5.873-4.343h2.62c.634 0 1.149-.491 1.149-1.094v-3.015c0-.603-.515-1.094-1.149-1.094zM1.465 26.762v-2.414h2.66a5.504 5.504 0 0 0-.544 2.382l.001.032H1.465zm8.177 4.343c-2.534 0-4.596-1.963-4.596-4.375 0-2.413 2.062-4.375 4.596-4.375 2.535 0 4.596 1.962 4.596 4.375 0 2.412-2.061 4.375-4.596 4.375zm37.432-12.483h-1.436c-.46 0-.833-.356-.833-.794 0-.437.374-.793.833-.793h1.436v1.587zm-4.77-5.662h-7.082V8.614h4.824l2.259 4.346zm-9.955 9.994V6.09h5.393a1.6 1.6 0 0 1 1.434.847l.146.281h-4.284c-.706 0-1.281.547-1.281 1.22v4.696c0 .673.575 1.22 1.281 1.22H46.24c.46 0 .834.357.834.794v.491h-1.436c-1.267 0-2.298.982-2.298 2.188 0 1.207 1.031 2.188 2.298 2.188h1.436v2.938h-2.14a6.179 6.179 0 0 0-4.576-1.994 6.179 6.179 0 0 0-4.577 1.994h-3.432zm8.009 8.151c-2.534 0-4.596-1.963-4.596-4.375 0-2.413 2.062-4.375 4.596-4.375 2.534 0 4.596 1.962 4.596 4.375 0 2.412-2.062 4.375-4.596 4.375zm8.177-4.343h-2.117v-.032c0-.85-.194-1.655-.542-2.382h2.66v2.414z" fill="#F2AB00"/><path d="M37.36 17.099c0-.385-.327-.698-.732-.698H34.49c-.404 0-.732.313-.732.698 0 .385.328.697.732.697h2.14c.404 0 .732-.312.732-.697zM9.642 24.088c-1.53 0-2.775 1.185-2.775 2.642 0 1.457 1.245 2.642 2.775 2.642 1.53 0 2.776-1.185 2.776-2.642 0-1.457-1.245-2.642-2.776-2.642zm0 3.89c-.722 0-1.31-.56-1.31-1.248s.588-1.247 1.31-1.247c.723 0 1.31.56 1.31 1.247 0 .688-.587 1.248-1.31 1.248zM40.358 24.088c-1.53 0-2.775 1.185-2.775 2.642 0 1.457 1.245 2.642 2.775 2.642 1.53 0 2.775-1.185 2.775-2.642 0-1.457-1.245-2.642-2.775-2.642zm0 3.89c-.723 0-1.31-.56-1.31-1.248s.587-1.247 1.31-1.247c.722 0 1.31.56 1.31 1.247 0 .688-.588 1.248-1.31 1.248z" fill="#F2AB00"/></svg>
